public/shapes/characters/524.svg

<?xml version="1.0" encoding="UTF-8"?>
<svg width="88.4px" height="77.25px" version="1.1" xmlns="http://www.w3.org/2000/svg" xmlns:cc="http://creativecommons.org/ns#" xmlns:dc="http://purl.org/dc/elements/1.1/" xmlns:rdf="http://www.w3.org/1999/02/22-rdf-syntax-ns#">
 <metadata>
  <rdf:RDF>
   <cc:Work rdf:about="">
    <dc:format>image/svg+xml</dc:format>
    <dc:type rdf:resource="http://purl.org/dc/dcmitype/StillImage"/>
    <dc:title/>
   </cc:Work>
  </rdf:RDF>
 </metadata>
 <g fill="#fff">
  <ellipse cx="44.805" cy="31.491" rx="31.991" ry="26.856" stroke-width=".90424"/>
  <path d="m13.269 24.084-6.8162-0.81794-2.9082-5.4529-1.0906-11.542 8.3612-1.7268 7.9976-2.9082 3.9988 2.8174 1.7268 6.6344z"/>
  <path d="m63.981 9.5426 12.178 13.814 8.0885-1.4541 2.2721-7.3615-0.72706-10.542-9.0882-0.45441-7.6341-2.5447z"/>
 </g>
 <g transform="translate(44.2 38.6)" fill-rule="evenodd">
  <path d="m6.2 4.95q0.55 0.15 0.8 0.65 0.25 0.55 0.05 1.1-0.5 1.65-1.9 2.9-1.85 1.65-4.4 1.45-2.85-0.2-4.75-2.05l-1.4-1.95q-0.25-0.55 0-1.05 0.2-0.55 0.75-0.75t1.05 0q0.55 0.2 0.75 0.7l0.85 1.15q1.2 1.05 2.9 1.15 1.6 0.15 2.65-1.05 0.6-0.6 0.85-1.4 0.2-0.55 0.7-0.8l1.1-0.05"/>
  <path d="m-24.45-35.25q-2.5-1.3-7.05 1.85-3.45 2.25-8.4 1.85 1.1 3.3 1.1 8.95v0.7q0 4.3 2.15 5.7 2.1 1.4 5.85 0.4 2.6-7.1 9.35-12.2-0.05-1.9-0.65-3.75-0.8-2.7-2.35-3.5m38.95 25.45q-1.45 0-2.5 1.05t-1.05 2.5 1.05 2.5 2.5 1.05 2.5-1.05 1.05-2.5-1.05-2.5-2.5-1.05m-27.95 3.55q0-1.45-1-2.5-1.05-1.05-2.5-1.05-1.5 0-2.5 1.05-1.05 1.05-1.05 2.5t1.05 2.5q1 1.05 2.5 1.05 1.45 0 2.5-1.05 1-1.05 1-2.5m-1.35-7.8q3.65 0 6.2 2.65t2.55 6.4l-0.25 2.15q1.25-2.1 1.9-4.35 0.95-3.15 0.7-7.1-0.3-4-1.7-6.7-5.7 1.65-11.7 1.45-3.7-0.15-6.8-0.9-3.15 4-4.2 8.7-0.85 5.25 1.45 9.7 2.35 4.5 6.65 5.8l4.3 0.25q-3.3-0.35-5.55-2.9-2.25-2.6-2.25-6.1 0-3.75 2.55-6.4t6.15-2.65m15.9-17.45q-7.05 0-13.25 2.5-6.05 2.45-10.2 6.75 6 1.15 12.25 0.15 10.1-1.65 18.15-8.75l-6.95-0.65m12 4.8 5.35-0.3q-3.5-2.1-7.9-3.25-6.5 6.05-14.15 8.65 1.45 3.05 1.75 7.25 0.3 4.25-0.75 7.7-1.1 3.65-3.3 6.55-2.25 2.9-5.25 4.5-4.7 2.55-9.4 1.15-2.7-0.85-4.85-2.8 3.7 5.95 10.7 9.5 7.25 3.65 15.8 3.65 8.7 0 16-3.75 7.1-3.65 10.75-9.75-2.25 2.25-5.1 3.15-4.7 1.4-9.4-1.15-2.95-1.6-5.2-4.5t-3.35-6.55q-2-6.7 0.45-12.55 2.4-5.9 7.85-7.5m16.2 12.7q-1-3.3-3-5.9-2.05-2.6-4.7-4.05-4-2.15-7.95-1-4.7 1.45-6.75 6.65-2.1 5.2-0.3 11.1 0.5 1.65 1.1 2.8l-0.05-0.6q0-3.75 2.55-6.4t6.2-2.65q3.6 0 6.15 2.65t2.55 6.4q0 3.4-2.15 5.95-2.15 2.5-5.35 3l4.6-0.2q3.95-1.2 6.1-5.2 1.45-2.65 1.7-5.95 0.3-3.3-0.7-6.6m11.15-10.15q-0.55-3.5-0.55-6.3 0-1.85 0.25-3.25-4.85 1.15-8.6-0.65-4.95-2.45-7.2-0.8-2.1 1.5-2 6.2 7.15 4.9 10.2 12l5.2-0.25 0.7-0.35 0.7-0.5q1.45-1.35 1.45-4.05l-0.15-2.05m-1.4-12.2q1.8-0.35 3.1-0.95h0.05l0.45-0.1 0.1-0.05q0.9 0 1.3 0.8l0.15 0.6q0 0.85-0.8 1.25l0.15-0.05-0.7 1.9q-0.5 2.95 0.35 8.4 0.9 5.8-2.15 8.55-2.6 2.35-7.45 2 0.85 3.1 0.85 6.2 0 9.5-7.15 16.95-7 7.35-17.95 9.65l2.65 19.85h-21.8l1.9-20.05q-10.6-2.45-17.4-9.7-6.95-7.4-6.95-16.7 0-2.45 0.55-4.95-3.95 0.6-6.55-1.1-3.4-2.35-3.35-8.2 0.05-5.5-0.85-8.35l-0.95-1.8q-0.8-0.35-0.8-1.3l0.05-0.4q0.35-1 1.35-1l0.35 0.05 0.05 0.05 3.25 0.5q3.7 0.2 6.1-1.45 6-4 9.9-2 3.6 1.9 4.35 7.95 8.75-5.45 19.9-5.45 10.1 0 18.5 4.6 0.4-4.85 3.1-6.8 3.55-2.55 10.1 0.55 2.6 1.3 6.25 0.55"/>
 </g>
</svg>

<?xml version="1.0" encoding="UTF-8" standalone="no"?>
<svg xmlns:xlink="http://www.w3.org/1999/xlink" height="77.25px" width="88.4px" xmlns="http://www.w3.org/2000/svg">
  <g transform="matrix(1.0, 0.0, 0.0, 1.0, 44.2, 38.6)">
    <path d="M-5.4 -21.0 Q-4.0 -18.3 -3.7 -14.3 -3.45 -10.35 -4.4 -7.2 -5.05 -4.95 -6.3 -2.85 L-6.05 -5.0 Q-6.05 -8.75 -8.6 -11.4 -11.15 -14.05 -14.8 -14.05 -18.4 -14.05 -20.95 -11.4 -23.5 -8.75 -23.5 -5.0 -23.5 -1.5 -21.25 1.1 -19.0 3.65 -15.7 4.0 L-20.0 3.75 Q-24.3 2.45 -26.65 -2.05 -28.95 -6.5 -28.1 -11.75 -27.05 -16.45 -23.9 -20.45 -20.8 -19.7 -17.1 -19.55 -11.1 -19.35 -5.4 -21.0" fill="#ffffff" fill-rule="evenodd" stroke="none"/>
    <path d="M-14.45 -8.75 Q-13.45 -7.7 -13.45 -6.25 -13.45 -4.8 -14.45 -3.75 -15.5 -2.7 -16.95 -2.7 -18.45 -2.7 -19.45 -3.75 -20.5 -4.8 -20.5 -6.25 -20.5 -7.7 -19.45 -8.75 -18.45 -9.8 -16.95 -9.8 -15.5 -9.8 -14.45 -8.75" fill="#ffffff" fill-rule="evenodd" stroke="none"/>
    <path d="M14.5 -9.8 Q15.95 -9.8 17.0 -8.75 18.05 -7.7 18.05 -6.25 18.05 -4.8 17.0 -3.75 15.95 -2.7 14.5 -2.7 13.05 -2.7 12.0 -3.75 10.95 -4.8 10.95 -6.25 10.95 -7.7 12.0 -8.75 13.05 -9.8 14.5 -9.8" fill="#ffffff" fill-rule="evenodd" stroke="none"/>
    <path d="M6.2 4.95 Q6.75 5.1 7.0 5.6 7.25 6.15 7.05 6.7 6.55 8.35 5.15 9.6 3.3 11.25 0.75 11.05 -2.1 10.85 -4.0 9.0 L-5.4 7.05 Q-5.65 6.5 -5.4 6.0 -5.2 5.45 -4.65 5.25 -4.1 5.05 -3.6 5.25 -3.05 5.45 -2.85 5.95 L-2.0 7.1 Q-0.8 8.15 0.9 8.25 2.5 8.4 3.55 7.2 4.15 6.6 4.4 5.8 4.6 5.25 5.1 5.0 L6.2 4.95" fill="#000000" fill-rule="evenodd" stroke="none"/>
    <path d="M-24.45 -35.25 Q-26.95 -36.55 -31.5 -33.4 -34.95 -31.15 -39.9 -31.55 -38.8 -28.25 -38.8 -22.6 L-38.8 -21.9 Q-38.8 -17.6 -36.65 -16.2 -34.55 -14.8 -30.8 -15.8 -28.2 -22.9 -21.45 -28.0 -21.5 -29.9 -22.1 -31.75 -22.9 -34.45 -24.45 -35.25 M14.5 -9.8 Q13.05 -9.8 12.0 -8.75 10.95 -7.7 10.95 -6.25 10.95 -4.8 12.0 -3.75 13.05 -2.7 14.5 -2.7 15.95 -2.7 17.0 -3.75 18.05 -4.8 18.05 -6.25 18.05 -7.7 17.0 -8.75 15.95 -9.8 14.5 -9.8 M-13.45 -6.25 Q-13.45 -7.7 -14.45 -8.75 -15.5 -9.8 -16.95 -9.8 -18.45 -9.8 -19.45 -8.75 -20.5 -7.7 -20.5 -6.25 -20.5 -4.8 -19.45 -3.75 -18.45 -2.7 -16.95 -2.7 -15.5 -2.7 -14.45 -3.75 -13.45 -4.8 -13.45 -6.25 M-14.8 -14.05 Q-11.15 -14.05 -8.6 -11.4 -6.05 -8.75 -6.05 -5.0 L-6.3 -2.85 Q-5.05 -4.95 -4.4 -7.2 -3.45 -10.35 -3.7 -14.3 -4.0 -18.3 -5.4 -21.0 -11.1 -19.35 -17.1 -19.55 -20.8 -19.7 -23.9 -20.45 -27.05 -16.45 -28.1 -11.75 -28.95 -6.5 -26.65 -2.05 -24.3 2.45 -20.0 3.75 L-15.7 4.0 Q-19.0 3.65 -21.25 1.1 -23.5 -1.5 -23.5 -5.0 -23.5 -8.75 -20.95 -11.4 -18.4 -14.05 -14.8 -14.05 M1.1 -31.5 Q-5.95 -31.5 -12.15 -29.0 -18.2 -26.55 -22.35 -22.25 -16.35 -21.1 -10.1 -22.1 0.0 -23.75 8.05 -30.85 L1.1 -31.5 M13.1 -26.7 L18.45 -27.0 Q14.95 -29.1 10.55 -30.25 4.05 -24.2 -3.6 -21.6 -2.15 -18.55 -1.85 -14.35 -1.55 -10.1 -2.6 -6.65 -3.7 -3.0 -5.9 -0.1 -8.15 2.8 -11.15 4.4 -15.85 6.95 -20.55 5.55 -23.25 4.7 -25.4 2.75 -21.7 8.7 -14.7 12.25 -7.45 15.9 1.1 15.9 9.8 15.9 17.1 12.15 24.2 8.5 27.85 2.4 25.6 4.65 22.75 5.55 18.05 6.95 13.35 4.4 10.4 2.8 8.15 -0.1 5.9 -3.0 4.8 -6.65 2.8 -13.35 5.25 -19.2 7.65 -25.1 13.1 -26.7 M29.3 -14.0 Q28.3 -17.3 26.3 -19.9 24.25 -22.5 21.6 -23.95 17.6 -26.1 13.65 -24.95 8.95 -23.5 6.9 -18.3 4.8 -13.1 6.6 -7.2 7.1 -5.55 7.7 -4.4 L7.65 -5.0 Q7.65 -8.75 10.2 -11.4 12.75 -14.05 16.4 -14.05 20.0 -14.05 22.55 -11.4 25.1 -8.75 25.1 -5.0 25.1 -1.6 22.95 0.95 20.8 3.45 17.6 3.95 L22.2 3.75 Q26.15 2.55 28.3 -1.45 29.75 -4.1 30.0 -7.4 30.3 -10.7 29.3 -14.0 M40.45 -24.15 Q39.9 -27.65 39.9 -30.45 39.9 -32.3 40.15 -33.7 35.3 -32.55 31.55 -34.35 26.6 -36.8 24.35 -35.15 22.25 -33.65 22.35 -28.95 29.5 -24.05 32.55 -16.95 L37.75 -17.2 38.45 -17.55 39.15 -18.05 Q40.6 -19.4 40.6 -22.1 L40.45 -24.15 M39.05 -36.35 Q40.85 -36.7 42.15 -37.3 L42.2 -37.3 42.65 -37.4 42.75 -37.45 Q43.65 -37.45 44.05 -36.65 L44.2 -36.05 Q44.2 -35.2 43.4 -34.8 L43.55 -34.85 42.85 -32.95 Q42.35 -30.0 43.2 -24.55 44.1 -18.75 41.05 -16.0 38.45 -13.65 33.6 -14.0 34.45 -10.9 34.45 -7.8 34.45 1.7 27.3 9.15 20.3 16.5 9.35 18.8 L12.0 38.65 -9.8 38.65 -7.9 18.6 Q-18.5 16.15 -25.3 8.9 -32.25 1.5 -32.25 -7.8 -32.25 -10.25 -31.7 -12.75 -35.65 -12.15 -38.25 -13.85 -41.65 -16.2 -41.6 -22.05 -41.55 -27.55 -42.45 -30.4 L-43.4 -32.2 Q-44.2 -32.55 -44.2 -33.5 L-44.15 -33.9 Q-43.8 -34.9 -42.8 -34.9 L-42.45 -34.85 -42.4 -34.8 -39.15 -34.3 Q-35.45 -34.1 -33.05 -35.75 -27.05 -39.75 -23.15 -37.75 -19.55 -35.85 -18.8 -29.8 -10.05 -35.25 1.1 -35.25 11.2 -35.25 19.6 -30.65 20.0 -35.5 22.7 -37.45 26.25 -40.0 32.8 -36.9 35.4 -35.6 39.05 -36.35" fill="#000000" fill-rule="evenodd" stroke="none"/>
  </g>
</svg>
